icons/opensource-dark.svg

<svg width="256" height="256" viewBox="0 0 256 256" fill="none" xmlns="http://www.w3.org/2000/svg">
<path d="M196 0H60C26.8629 0 0 26.8629 0 60V196C0 229.137 26.8629 256 60 256H196C229.137 256 256 229.137 256 196V60C256 26.8629 229.137 0 196 0Z" fill="#282828"/>
<path d="M139.403 164.14C153.638 158.853 161.069 148.672 161.069 131.15C161.069 113.627 146.303 98.1866 127.853 98.1566C108.384 98.125 93.6963 113.563 93.9312 131.15C94.166 148.736 102.553 160.436 115.977 164.666L92.1972 223.168C60.37 214.929 28 177.382 28 131.15C28 76.3908 71.9997 32 127.147 32C182.294 32 227 76.3908 227 131.15C227 178.101 194.937 215.124 162.431 223.332L139.403 164.14Z" fill="#3EA639"/>
</svg>

<svg xmlns="http://www.w3.org/2000/svg" width="256" height="256" fill="none"><path fill="#282828" d="M196 0H60C26.863 0 0 26.863 0 60v136c0 33.137 26.863 60 60 60h136c33.137 0 60-26.863 60-60V60c0-33.137-26.863-60-60-60"/><path fill="#3EA639" d="M139.403 164.14c14.235-5.287 21.666-15.468 21.666-32.99s-14.766-32.963-33.216-32.993c-19.469-.032-34.157 15.406-33.922 32.993.235 17.586 8.622 29.286 22.046 33.516l-23.78 58.502C60.37 214.929 28 177.382 28 131.15 28 76.39 72 32 127.147 32S227 76.39 227 131.15c0 46.951-32.063 83.974-64.569 92.182z"/></svg>
